tools/download-figma-icons/icons/outlined-large/city.svg

<svg width="64" height="64" viewBox="0 0 64 64" fill="none" xmlns="http://www.w3.org/2000/svg">
<path fill-rule="evenodd" clip-rule="evenodd" d="M58 61H47V54H58V61ZM20 61H39.7H44V25H20V31.5V61ZM17 33V61H6V33H17ZM46 19H18V22H18.5H45.5H46V19ZM58 14H33.5V16H47.5C48.328 16 49 16.672 49 17.5V19H58V14ZM58 11H33.5V3H58V11ZM58 51H47V46H58V51ZM58 43H47V38H58V43ZM58 35H47V30H58V35ZM49 23.5C49 24.328 48.328 25 47.5 25H47V27H58V22H49V23.5ZM61 61H62.5C63.328 61 64 61.672 64 62.5C64 63.328 63.328 64 62.5 64H59.5H45.5H39.7H18.5H4.5H1.5C0.672 64 0 63.328 0 62.5C0 61.672 0.672 61 1.5 61H3V31.5C3 30.672 3.672 30 4.5 30H17V25H16.5C15.672 25 15 24.328 15 23.5V17.5C15 16.672 15.672 16 16.5 16H30.5V1.5C30.5 0.672 31.172 0 32 0H59.5C60.328 0 61 0.672 61 1.5V61ZM25.5 29H28.5C29.328 29 30 29.672 30 30.5C30 31.328 29.328 32 28.5 32H25.5C24.672 32 24 31.328 24 30.5C24 29.672 24.672 29 25.5 29ZM10 37.5C10 36.672 10.672 36 11.5 36C12.328 36 13 36.672 13 37.5V39.5C13 40.328 12.328 41 11.5 41C10.672 41 10 40.328 10 39.5V37.5ZM38.5 29H35.5C34.672 29 34 29.672 34 30.5C34 31.328 34.672 32 35.5 32H38.5C39.328 32 40 31.328 40 30.5C40 29.672 39.328 29 38.5 29ZM25.5 37H28.5C29.328 37 30 37.672 30 38.5C30 39.328 29.328 40 28.5 40H25.5C24.672 40 24 39.328 24 38.5C24 37.672 24.672 37 25.5 37ZM38.5 37H35.5C34.672 37 34 37.672 34 38.5C34 39.328 34.672 40 35.5 40H38.5C39.328 40 40 39.328 40 38.5C40 37.672 39.328 37 38.5 37ZM25.5 45H28.5C29.328 45 30 45.672 30 46.5C30 47.328 29.328 48 28.5 48H25.5C24.672 48 24 47.328 24 46.5C24 45.672 24.672 45 25.5 45ZM38.5 45H35.5C34.672 45 34 45.672 34 46.5C34 47.328 34.672 48 35.5 48H38.5C39.328 48 40 47.328 40 46.5C40 45.672 39.328 45 38.5 45ZM25.5 53H28.5C29.328 53 30 53.672 30 54.5C30 55.328 29.328 56 28.5 56H25.5C24.672 56 24 55.328 24 54.5C24 53.672 24.672 53 25.5 53ZM38.5 53H35.5C34.672 53 34 53.672 34 54.5C34 55.328 34.672 56 35.5 56H38.5C39.328 56 40 55.328 40 54.5C40 53.672 39.328 53 38.5 53ZM10 45.5C10 44.672 10.672 44 11.5 44C12.328 44 13 44.672 13 45.5V47.5C13 48.328 12.328 49 11.5 49C10.672 49 10 48.328 10 47.5V45.5ZM11.5 52C10.672 52 10 52.672 10 53.5V55.5C10 56.328 10.672 57 11.5 57C12.328 57 13 56.328 13 55.5V53.5C13 52.672 12.328 52 11.5 52Z" fill="black"/>
</svg>

<svg width="64" height="64" viewBox="0 0 64 64" fill="none" xmlns="http://www.w3.org/2000/svg"><path fill-rule="evenodd" clip-rule="evenodd" d="M58 61H47v-7h11v7Zm-38 0h24V25H20v36Zm-3-28v28H6V33h11Zm29-14H18v3h28v-3Zm12-5H33.5v2h14a1.5 1.5 0 0 1 1.5 1.5V19h9v-5Zm0-3H33.5V3H58v8Zm0 40H47v-5h11v5Zm0-8H47v-5h11v5Zm0-8H47v-5h11v5Zm-9-11.5a1.5 1.5 0 0 1-1.5 1.5H47v2h11v-5h-9v1.5ZM61 61h1.5a1.5 1.5 0 0 1 0 3h-61a1.5 1.5 0 0 1 0-3H3V31.5A1.5 1.5 0 0 1 4.5 30H17v-5h-.5a1.5 1.5 0 0 1-1.5-1.5v-6a1.5 1.5 0 0 1 1.5-1.5h14V1.5A1.5 1.5 0 0 1 32 0h27.5A1.5 1.5 0 0 1 61 1.5V61ZM25.5 29h3a1.5 1.5 0 0 1 0 3h-3a1.5 1.5 0 0 1 0-3ZM10 37.5a1.5 1.5 0 0 1 3 0v2a1.5 1.5 0 0 1-3 0v-2ZM38.5 29h-3a1.5 1.5 0 0 0 0 3h3a1.5 1.5 0 0 0 0-3Zm-13 8h3a1.5 1.5 0 0 1 0 3h-3a1.5 1.5 0 0 1 0-3Zm13 0h-3a1.5 1.5 0 0 0 0 3h3a1.5 1.5 0 0 0 0-3Zm-13 8h3a1.5 1.5 0 0 1 0 3h-3a1.5 1.5 0 0 1 0-3Zm13 0h-3a1.5 1.5 0 0 0 0 3h3a1.5 1.5 0 0 0 0-3Zm-13 8h3a1.5 1.5 0 0 1 0 3h-3a1.5 1.5 0 0 1 0-3Zm13 0h-3a1.5 1.5 0 0 0 0 3h3a1.5 1.5 0 0 0 0-3ZM10 45.5a1.5 1.5 0 0 1 3 0v2a1.5 1.5 0 0 1-3 0v-2Zm1.5 6.5a1.5 1.5 0 0 0-1.5 1.5v2a1.5 1.5 0 0 0 3 0v-2a1.5 1.5 0 0 0-1.5-1.5Z" fill="currentColor"/></svg>
